public/assets/img/secenek4.svg

<?xml version="1.0" encoding="utf-8"?>
<!-- Generator: Adobe Illustrator 16.0.0, SVG Export Plug-In . SVG Version: 6.00 Build 0)  -->
<!DOCTYPE svg PUBLIC "-//W3C//DTD SVG 1.1//EN" "http://www.w3.org/Graphics/SVG/1.1/DTD/svg11.dtd">
<svg version="1.1" id="Layer_1" xmlns="http://www.w3.org/2000/svg" xmlns:xlink="http://www.w3.org/1999/xlink" x="0px" y="0px"
	 width="180px" height="150px" viewBox="0 0 180 150" enable-background="new 0 0 180 150" xml:space="preserve">
<g>
	<g>
		<g>
			<g>
				<polygon fill="#1C75BC" points="45.587,148.99 1.176,75 45.587,1.009 134.41,1.009 178.822,75 134.41,148.99 				"/>
				<path fill="#2F5190" d="M134.98,150H45.017L0,75l0.313-0.521L45.017,0h89.963L180,75l-0.313,0.521L134.98,150z M46.158,147.981
					h87.682L177.646,75L133.84,2.019H46.158L2.352,75L46.158,147.981z"/>
			</g>
			<g>
				<polygon fill="#F5C714" points="33.228,128.399 45.587,148.99 134.41,148.99 146.771,128.399 				"/>
				<path fill="#2F5190" d="M134.98,150H45.017l-13.571-22.61h117.107L134.98,150z M46.158,147.981h87.682l11.148-18.573H35.009
					L46.158,147.981z"/>
			</g>
		</g>
		<g enable-background="new    ">
			<g>
				<path d="M60.494,141.694c0.565,0.348,1.394,0.639,2.265,0.639c1.292,0,2.047-0.683,2.047-1.671c0-0.916-0.521-1.438-1.844-1.946
					c-1.598-0.568-2.584-1.396-2.584-2.777c0-1.525,1.264-2.658,3.165-2.658c1.002,0,1.728,0.23,2.163,0.479l-0.349,1.031
					c-0.318-0.174-0.973-0.464-1.857-0.464c-1.336,0-1.845,0.799-1.845,1.468c0,0.915,0.597,1.366,1.945,1.891
					c1.655,0.639,2.497,1.438,2.497,2.877c0,1.512-1.117,2.818-3.426,2.818c-0.944,0-1.977-0.275-2.498-0.625L60.494,141.694z"/>
			</g>
			<g>
				<path d="M68.582,139.95c0.027,1.729,1.133,2.441,2.411,2.441c0.914,0,1.466-0.16,1.943-0.363l0.219,0.916
					c-0.449,0.203-1.22,0.436-2.339,0.436c-2.161,0-3.454-1.424-3.454-3.546s1.248-3.793,3.297-3.793
					c2.294,0,2.902,2.021,2.902,3.313c0,0.261-0.029,0.465-0.044,0.596H68.582L68.582,139.95z M72.327,139.034
					c0.016-0.814-0.333-2.078-1.771-2.078c-1.292,0-1.857,1.191-1.96,2.078H72.327z"/>
			</g>
			<g>
				<path d="M80.168,142.972c-0.305,0.16-0.973,0.394-1.844,0.408l-0.363,0.58c0.522,0.102,1.017,0.465,1.017,1.061
					c0,0.873-0.726,1.207-1.51,1.207c-0.334,0-0.74-0.088-1.017-0.248l0.219-0.652c0.217,0.13,0.508,0.188,0.798,0.188
					c0.334,0,0.624-0.102,0.624-0.449c-0.014-0.393-0.449-0.538-1.133-0.61l0.609-1.119c-1.785-0.218-2.933-1.599-2.933-3.546
					c0-2.165,1.481-3.734,3.774-3.734c0.756,0,1.423,0.188,1.771,0.362l-0.291,0.988c-0.305-0.175-0.783-0.334-1.48-0.334
					c-1.611,0-2.481,1.19-2.481,2.659c0,1.628,1.045,2.631,2.438,2.631c0.726,0,1.22-0.189,1.567-0.35L80.168,142.972z"/>
			</g>
			<g>
				<path d="M82.26,139.95c0.028,1.729,1.133,2.441,2.41,2.441c0.914,0,1.466-0.16,1.945-0.363l0.218,0.916
					c-0.45,0.203-1.22,0.436-2.338,0.436c-2.163,0-3.455-1.424-3.455-3.546s1.249-3.793,3.296-3.793
					c2.294,0,2.904,2.021,2.904,3.313c0,0.261-0.029,0.465-0.044,0.596H82.26L82.26,139.95z M86.005,139.034
					c0.015-0.814-0.334-2.078-1.771-2.078c-1.292,0-1.857,1.191-1.96,2.078H86.005z"/>
			</g>
			<g>
				<path d="M88.823,138.104c0-0.728-0.015-1.322-0.06-1.904h1.133l0.073,1.163h0.028c0.349-0.669,1.163-1.322,2.323-1.322
					c0.975,0,2.482,0.581,2.482,2.994v4.199h-1.277v-4.056c0-1.134-0.422-2.078-1.627-2.078c-0.842,0-1.494,0.597-1.712,1.309
					c-0.059,0.16-0.087,0.378-0.087,0.598v4.229h-1.277L88.823,138.104L88.823,138.104z"/>
			</g>
			<g>
				<path d="M97.594,139.95c0.029,1.729,1.133,2.441,2.41,2.441c0.914,0,1.467-0.16,1.945-0.363l0.219,0.916
					c-0.451,0.203-1.221,0.436-2.338,0.436c-2.164,0-3.457-1.424-3.457-3.546s1.25-3.793,3.297-3.793
					c2.295,0,2.904,2.021,2.904,3.313c0,0.261-0.029,0.465-0.045,0.596H97.594L97.594,139.95z M101.34,139.034
					c0.014-0.814-0.334-2.078-1.771-2.078c-1.293,0-1.857,1.191-1.961,2.078H101.34z"/>
			</g>
			<g>
				<path d="M105.42,139.427h0.027c0.176-0.246,0.422-0.553,0.625-0.799l2.063-2.428h1.539l-2.715,2.893l3.092,4.143h-1.553
					l-2.426-3.372l-0.652,0.728v2.646h-1.264v-10.318h1.264V139.427L105.42,139.427z"/>
			</g>
			<g>
				<path d="M117.588,143.234v-2.572h-4.385v-0.843l4.211-6.031h1.379v5.871h1.32v1.003h-1.32v2.572H117.588L117.588,143.234z
					 M117.588,139.659v-3.154c0-0.494,0.014-0.988,0.043-1.482h-0.043c-0.291,0.554-0.523,0.959-0.783,1.396l-2.311,3.213v0.028
					L117.588,139.659L117.588,139.659z"/>
			</g>
		</g>
	</g>
	<g>
		<g>
			<path fill="#FFFFFF" stroke="#FFFFFF" stroke-width="15" stroke-miterlimit="10" d="M125.307,72.577"/>
		</g>
		<g>
			<path fill="#FFFFFF" stroke="#FFFFFF" stroke-width="15" stroke-miterlimit="10" d="M54.691,72.577"/>
		</g>
		<g>
			<rect x="51.692" y="36.246" fill="#FFFFFF" width="6.051" height="71.673"/>
		</g>
		<g>
			<g>
				<rect x="54.691" y="34.207" fill="#FFFFFF" width="70.616" height="6.056"/>
			</g>
			<g>
				<path fill="#FFFFFF" stroke="#FFFFFF" stroke-width="15" stroke-miterlimit="10" d="M126.346,108.96"/>
			</g>
			<g>
				<path fill="#FFFFFF" stroke="#FFFFFF" stroke-width="15" stroke-miterlimit="10" d="M54.691,37.235"/>
			</g>
			<g>
				<path fill="#FFFFFF" stroke="#FFFFFF" stroke-width="15" stroke-miterlimit="10" d="M54.716,107.946"/>
			</g>
			<g>
				<path fill="#FFFFFF" stroke="#FFFFFF" stroke-width="15" stroke-miterlimit="10" d="M126.346,36.246"/>
			</g>
			<g>
				<rect x="54.716" y="104.918" fill="#FFFFFF" width="71.629" height="6.058"/>
			</g>
			<g>
				<rect x="122.334" y="37.235" fill="#FFFFFF" width="6.049" height="70.711"/>
			</g>
		</g>
		<g>
			<path fill="#FFFFFF" d="M72.345,37.235c0,9.76-7.905,17.671-17.654,17.671s-17.653-7.912-17.653-17.671
				c0-9.76,7.904-17.672,17.653-17.672S72.345,27.476,72.345,37.235z"/>
		</g>
		<g>
			<path fill="#FFFFFF" d="M142.961,37.235c0,9.76-7.904,17.671-17.654,17.671c-9.748,0-17.654-7.912-17.654-17.671
				c0-9.76,7.906-17.672,17.654-17.672C135.057,19.563,142.961,27.476,142.961,37.235z"/>
		</g>
		<g>
			<path fill="#FFFFFF" d="M72.345,107.92c0,9.761-7.905,17.673-17.654,17.673s-17.653-7.912-17.653-17.673
				c0-9.76,7.904-17.671,17.653-17.671S72.345,98.16,72.345,107.92z"/>
		</g>
		<g>
			<path fill="#FFFFFF" d="M142.961,107.92c0,9.761-7.904,17.673-17.654,17.673c-9.748,0-17.654-7.912-17.654-17.673
				c0-9.76,7.906-17.671,17.654-17.671C135.057,90.249,142.961,98.16,142.961,107.92z"/>
		</g>
	</g>
	<g>
		<g>
			<ellipse fill="none" cx="54.604" cy="37.235" rx="17.653" ry="17.672"/>
		</g>
		<g>
			<g>
				<path d="M52.883,40.017l-0.813,2.935h-2.678l3.49-11.433h3.387l3.543,11.433h-2.781l-0.881-2.935H52.883L52.883,40.017z
					 M55.782,38.082l-0.715-2.425c-0.203-0.68-0.405-1.525-0.574-2.205h-0.034c-0.17,0.68-0.339,1.543-0.525,2.205l-0.679,2.425
					H55.782z"/>
			</g>
		</g>
	</g>
	<g>
		<g>
			<ellipse fill="none" cx="54.716" cy="107.946" rx="17.654" ry="17.671"/>
		</g>
		<g>
			<g>
				<path d="M50.48,102.366c0.681-0.137,2.052-0.238,3.339-0.238c1.576,0,2.541,0.153,3.371,0.646
					c0.797,0.424,1.372,1.203,1.372,2.238c0,1.018-0.593,1.967-1.882,2.441v0.034c1.305,0.356,2.271,1.34,2.271,2.813
					c0,1.035-0.476,1.851-1.187,2.428c-0.83,0.662-2.22,1.035-4.49,1.035c-1.271,0-2.219-0.086-2.797-0.17L50.48,102.366
					L50.48,102.366z M53.04,106.741h0.847c1.355,0,2.085-0.561,2.085-1.407c0-0.864-0.661-1.323-1.83-1.323
					c-0.56,0-0.881,0.034-1.101,0.068L53.04,106.741L53.04,106.741z M53.04,111.813c0.254,0.033,0.56,0.033,1,0.033
					c1.169,0,2.202-0.441,2.202-1.646c0-1.151-1.033-1.608-2.321-1.608H53.04V111.813L53.04,111.813z"/>
			</g>
		</g>
	</g>
	<g>
		<g>
			<ellipse fill="none" cx="125.307" cy="107.946" rx="17.654" ry="17.671"/>
		</g>
		<g>
			<g>
				<path d="M129.695,113.347c-0.477,0.238-1.543,0.492-2.934,0.492c-3.947,0-5.98-2.459-5.98-5.716
					c0-3.899,2.779-6.071,6.234-6.071c1.34,0,2.357,0.271,2.814,0.51l-0.525,2.052c-0.525-0.222-1.254-0.425-2.168-0.425
					c-2.051,0-3.643,1.238-3.643,3.783c0,2.289,1.354,3.73,3.656,3.73c0.781,0,1.645-0.17,2.154-0.373L129.695,113.347z"/>
			</g>
		</g>
	</g>
	<g>
		<g>
			<ellipse fill="none" cx="125.307" cy="37.192" rx="17.654" ry="17.672"/>
		</g>
		<g>
			<g>
				<path d="M120.258,31.612c0.949-0.152,2.186-0.237,3.49-0.237c2.168,0,3.574,0.39,4.676,1.222
					c1.186,0.881,1.932,2.289,1.932,4.308c0,2.188-0.797,3.696-1.896,4.63c-1.203,1.001-3.033,1.475-5.27,1.475
					c-1.338,0-2.289-0.084-2.934-0.168L120.258,31.612L120.258,31.612z M122.85,40.94c0.221,0.051,0.576,0.051,0.898,0.051
					c2.34,0.018,3.863-1.271,3.863-4.002c0.018-2.375-1.371-3.63-3.592-3.63c-0.576,0-0.951,0.051-1.168,0.103v7.479L122.85,40.94
					L122.85,40.94z"/>
			</g>
		</g>
	</g>
</g>
</svg>

<?xml version="1.0"?>
<svg width="180" height="150" xmlns="http://www.w3.org/2000/svg" xmlns:svg="http://www.w3.org/2000/svg" enable-background="new 0 0 180 150" version="1.1" xml:space="preserve">
 <g class="layer">
  <title>Layer 1</title>
  <g id="svg_1">
   <g id="svg_2">
    <g id="svg_3">
     <g id="svg_4">
      <polygon fill="#1C75BC" id="svg_5" points="45.587,148.99 1.176,75 45.587,1.009 134.41,1.009 178.822,75 134.41,148.99     "/>
      <path d="m134.98,150l-89.96,0l-45.02,-75l0.31,-0.52l44.71,-74.48l89.96,0l45.02,75l-0.31,0.52l-44.71,74.48zm-88.82,-2.02l87.68,0l43.81,-72.98l-43.81,-72.98l-87.68,0l-43.81,72.98l43.81,72.98z" fill="#2F5190" id="svg_6"/>
     </g>
     <g id="svg_7"/>
    </g>
   </g>
   <g id="svg_27">
    <g id="svg_28">
     <path d="m125.31,72.58" fill="#FFFFFF" id="svg_29" stroke="#FFFFFF" stroke-miterlimit="10" stroke-width="15"/>
    </g>
    <g id="svg_30">
     <path d="m54.69,72.58" fill="#FFFFFF" id="svg_31" stroke="#FFFFFF" stroke-miterlimit="10" stroke-width="15"/>
    </g>
    <g id="svg_32">
     <rect fill="#FFFFFF" height="71.67" id="svg_33" width="6.05" x="51.69" y="36.25"/>
    </g>
    <g id="svg_34">
     <g id="svg_35">
      <rect fill="#FFFFFF" height="6.06" id="svg_36" width="70.62" x="54.69" y="34.21"/>
     </g>
     <g id="svg_37">
      <path d="m126.35,108.96" fill="#FFFFFF" id="svg_38" stroke="#FFFFFF" stroke-miterlimit="10" stroke-width="15"/>
     </g>
     <g id="svg_39">
      <path d="m54.69,37.23" fill="#FFFFFF" id="svg_40" stroke="#FFFFFF" stroke-miterlimit="10" stroke-width="15"/>
     </g>
     <g id="svg_41">
      <path d="m54.72,107.95" fill="#FFFFFF" id="svg_42" stroke="#FFFFFF" stroke-miterlimit="10" stroke-width="15"/>
     </g>
     <g id="svg_43">
      <path d="m126.35,36.25" fill="#FFFFFF" id="svg_44" stroke="#FFFFFF" stroke-miterlimit="10" stroke-width="15"/>
     </g>
     <g id="svg_45">
      <rect fill="#FFFFFF" height="6.06" id="svg_46" width="71.63" x="54.72" y="104.92"/>
     </g>
     <g id="svg_47">
      <rect fill="#FFFFFF" height="70.71" id="svg_48" width="6.05" x="122.33" y="37.23"/>
     </g>
    </g>
    <g id="svg_49">
     <path d="m72.34,37.23c0,9.76 -7.9,17.68 -17.65,17.68s-17.65,-7.92 -17.65,-17.68c0,-9.75 7.9,-17.67 17.65,-17.67s17.65,7.92 17.65,17.67z" fill="#FFFFFF" id="svg_50"/>
    </g>
    <g id="svg_51">
     <path d="m142.96,37.23c0,9.76 -7.9,17.68 -17.65,17.68c-9.75,0 -17.66,-7.92 -17.66,-17.68c0,-9.75 7.91,-17.67 17.66,-17.67c9.75,0 17.65,7.92 17.65,17.67z" fill="#FFFFFF" id="svg_52"/>
    </g>
    <g id="svg_53">
     <path d="m72.34,107.92c0,9.76 -7.9,17.67 -17.65,17.67s-17.65,-7.91 -17.65,-17.67c0,-9.76 7.9,-17.67 17.65,-17.67s17.65,7.91 17.65,17.67z" fill="#FFFFFF" id="svg_54"/>
    </g>
    <g id="svg_55">
     <path d="m142.96,107.92c0,9.76 -7.9,17.67 -17.65,17.67c-9.75,0 -17.66,-7.91 -17.66,-17.67c0,-9.76 7.91,-17.67 17.66,-17.67c9.75,0 17.65,7.91 17.65,17.67z" fill="#FFFFFF" id="svg_56"/>
    </g>
   </g>
   <g id="svg_57">
    <g id="svg_58">
     <ellipse cx="54.6" cy="37.23" fill="none" id="svg_59" rx="17.65" ry="17.67"/>
    </g>
    <g id="svg_60">
     <g id="svg_61">
      <path d="m52.88,40.02l-0.81,2.93l-2.68,0l3.49,-11.43l3.39,0l3.54,11.43l-2.78,0l-0.88,-2.93l-3.27,0l0,0zm2.9,-1.94l-0.71,-2.42c-0.21,-0.68 -0.41,-1.53 -0.58,-2.21l-0.03,0c-0.17,0.68 -0.34,1.55 -0.53,2.21l-0.68,2.42l2.53,0z" id="svg_62"/>
     </g>
    </g>
   </g>
   <g id="svg_63">
    <g id="svg_64">
     <ellipse cx="54.72" cy="107.95" fill="none" id="svg_65" rx="17.65" ry="17.67"/>
    </g>
    <g id="svg_66">
     <g id="svg_67">
      <path d="m50.48,102.37c0.68,-0.14 2.05,-0.24 3.34,-0.24c1.57,0 2.54,0.15 3.37,0.64c0.8,0.43 1.37,1.21 1.37,2.24c0,1.02 -0.59,1.97 -1.88,2.44l0,0.04c1.3,0.35 2.27,1.34 2.27,2.81c0,1.04 -0.47,1.85 -1.19,2.43c-0.83,0.66 -2.22,1.03 -4.49,1.03c-1.27,0 -2.22,-0.08 -2.79,-0.17l0,-11.22l0,0zm2.56,4.37l0.85,0c1.35,0 2.08,-0.56 2.08,-1.41c0,-0.86 -0.66,-1.32 -1.83,-1.32c-0.56,0 -0.88,0.04 -1.1,0.07l0,2.66l0,0zm0,5.07c0.25,0.04 0.56,0.04 1,0.04c1.17,0 2.2,-0.44 2.2,-1.65c0,-1.15 -1.03,-1.61 -2.32,-1.61l-0.88,0l0,3.22l0,0z" id="svg_68"/>
     </g>
    </g>
   </g>
   <g id="svg_69">
    <g id="svg_70">
     <ellipse cx="125.31" cy="107.95" fill="none" id="svg_71" rx="17.65" ry="17.67"/>
    </g>
    <g id="svg_72">
     <g id="svg_73">
      <path d="m129.69,113.35c-0.47,0.23 -1.54,0.49 -2.93,0.49c-3.95,0 -5.98,-2.46 -5.98,-5.72c0,-3.9 2.78,-6.07 6.23,-6.07c1.34,0 2.36,0.27 2.82,0.51l-0.53,2.05c-0.52,-0.22 -1.25,-0.42 -2.16,-0.42c-2.06,0 -3.65,1.24 -3.65,3.78c0,2.29 1.36,3.73 3.66,3.73c0.78,0 1.64,-0.17 2.15,-0.37l0.39,2.02z" id="svg_74"/>
     </g>
    </g>
   </g>
   <g id="svg_75">
    <g id="svg_76">
     <ellipse cx="125.31" cy="37.19" fill="none" id="svg_77" rx="17.65" ry="17.67"/>
    </g>
    <g id="svg_78">
     <g id="svg_79">
      <path d="m120.26,31.61c0.95,-0.15 2.18,-0.23 3.49,-0.23c2.17,0 3.57,0.39 4.67,1.22c1.19,0.88 1.94,2.29 1.94,4.31c0,2.18 -0.8,3.69 -1.9,4.63c-1.2,1 -3.03,1.47 -5.27,1.47c-1.34,0 -2.29,-0.08 -2.93,-0.17l0,-11.23l0,0zm2.59,9.33c0.22,0.05 0.58,0.05 0.9,0.05c2.34,0.02 3.86,-1.27 3.86,-4c0.02,-2.38 -1.37,-3.63 -3.59,-3.63c-0.58,0 -0.95,0.05 -1.17,0.1l0,7.48l0,0l0,0z" id="svg_80"/>
     </g>
    </g>
   </g>
  </g>
 </g>
</svg>
